X:148
T:Chinese Festival, The
M:C|
L:1/8
B:Thompson's Compleat Collection of 200 Favourite Country Dances, vol. 1 (London, 1757)
Z:Transcribed and edited by Flynn Titford-Mock, 2007
Z:abc's:AK/Fiddler's Companion
K:F
f2 (3cde f2 (3cde|gbag "tr"g2f2|f2 (3cde f2 (3cBA|BdcB "tr"B2 A2:|
|:g2 (3cde gbag|afbg "tr"fe f2|c2 "tr"BA BdcB|AGFE F2 f2:|

